src/assets/firefly.logo.svg

<svg fill="none" height="20" viewBox="0 0 16 20" width="16" xmlns="http://www.w3.org/2000/svg"><path d="m1.75.193359h1.25v1.225861h-1.25z" fill="#d543ed"/><path d="m4.25001 2.64507h-1.25001v1.22586h-1.25v4.90342h-1.25v6.12925h1.25v2.4517h1.25v1.2259h1.25001v1.2259h7.49999v-1.2259h1.25v-1.2259h1.25v-1.2258h1.25v-6.1293h-1.25v-2.4517h-1.25v-2.45171h-1.25v-1.22586h1.25v-1.22586h-1.25v1.22586h-1.25v-1.22586h-1.25v-1.22585h-2.5v-1.225861h-1.25v2.451711h1.25v1.22586h-1.25v2.45171h-1.24999v-1.22585h-1.25001v-1.22586h1.25001z" fill="#d543ed"/><path d="m8 3.87109h1.25v1.22586h1.25v1.22586h1.25v2.45171h1.25v2.45168h1.25v4.9035h-1.25v1.2258h-1.25v1.2259h-6.25001v-1.2259h-2.49999v-2.4517h-1.25v-4.9034h1.25v-2.45174h3.75v-1.22585h1.25z" fill="#9250ff"/><path d="m4.25 5.09695h-1.25v1.22586h1.25z" fill="#9250ff"/><path d="m8 6.32227h1.25v1.22585h-1.25z" fill="#9787fc"/><path d="m11.75 12.4515v-2.45167h-1.25v-2.45171h-1.25v1.22586h-2.50001v1.22585h-1.25l.00001-1.22585h-1.25v2.45172h-1.25v6.1293h2.49999v1.2258h6.25001v-2.4517h1.25v-3.6776z" fill="#9787fc"/><g fill="#fff"><path d="m9.25 8.77344h-1.25001v1.22585h1.25001z"/><path clip-rule="evenodd" d="m5.49999 11.2252v1.2258h-1.24999v4.9034h1.24999v1.2259h5.00001v-1.2259h1.25v-4.9034h-1.25v-1.2258zm0 2.4517h1.25v2.4517h-1.25zm5.00001 2.4517v-2.4517h-1.25v2.4517z" fill-rule="evenodd"/></g></svg>

<svg xmlns="http://www.w3.org/2000/svg" width="16" height="20" viewBox="0 0 16 20" fill="none">
    <path d="M1.75 0.193359H3V1.41922H1.75V0.193359Z" fill="#D543ED" />
    <path
        d="M4.25001 2.64507H3V3.87093L1.75 3.87093V8.77435H0.5V14.9036H1.75V17.3553H3V18.5812H4.25001V19.8071H11.75V18.5812H13L13 17.3553H14.25V16.1295H15.5V10.0002H14.25V7.5485H13L13 5.09679H11.75V3.87093L13 3.87093V2.64507H11.75V3.87093H10.5V2.64507H9.25V1.41922H6.75V0.193359H5.5V2.64507H6.75V3.87093H5.5V6.32264H4.25001V5.09679H3V3.87093H4.25001V2.64507Z"
        fill="#D543ED" />
    <path
        d="M8 3.87109H9.25V5.09695H10.5V6.32281H11.75V8.77452L13 8.77452V11.2262H14.25V16.1297H13L13 17.3555H11.75V18.5814H5.49999V17.3555H3V14.9038H1.75V10.0004H3V7.54866H6.75V6.32281L8 6.32281V3.87109Z"
        fill="#9250FF" />
    <path d="M4.25 5.09695H3V6.32281H4.25V5.09695Z" fill="#9250FF" />
    <path d="M8 6.32227H9.25V7.54812H8V6.32227Z" fill="#9787FC" />
    <path
        d="M11.75 12.4515V9.99983H10.5V7.54812L9.25 7.54812V8.77398L6.74999 8.77398V9.99983H5.49999L5.5 8.77398H4.25V11.2257H3V17.355H5.49999V18.5808H11.75V16.1291H13V12.4515H11.75Z"
        fill="#9787FC" />
    <path d="M9.25 8.77344H7.99999V9.99929H9.25V8.77344Z" fill="white" />
    <path fill-rule="evenodd" clip-rule="evenodd"
        d="M5.49999 11.2252V12.451H4.25V17.3544H5.49999V18.5803H10.5V17.3544H11.75V12.451H10.5V11.2252H5.49999ZM5.49999 13.6769H6.74999V16.1286H5.49999V13.6769ZM10.5 16.1286V13.6769L9.25 13.6769V16.1286H10.5Z"
        fill="white" />
</svg>
